sources/images/svg/i-3.svg

<?xml version="1.0" encoding="UTF-8" standalone="no"?>
<svg width="39px" height="39px" viewBox="0 0 39 39" version="1.1" xmlns="http://www.w3.org/2000/svg" xmlns:xlink="http://www.w3.org/1999/xlink" xmlns:sketch="http://www.bohemiancoding.com/sketch/ns">
    <!-- Generator: Sketch 3.0.4 (8053) - http://www.bohemiancoding.com/sketch -->
    <title>i-3</title>
    <desc>Created with Sketch.</desc>
    <defs></defs>
    <g id="Page-1" stroke="none" stroke-width="1" fill="none" fill-rule="evenodd" sketch:type="MSPage">
        <g id="i-3" sketch:type="MSLayerGroup" fill="#63B1FF">
            <path d="M19.4103582,38.8370149 C8.7301791,38.8370149 0.0413283582,30.1475821 0.0413283582,19.467403 C0.0413283582,8.78722388 8.7301791,0.0983731343 19.4103582,0.0983731343 C30.0905373,0.0983731343 38.7799701,8.78722388 38.7799701,19.467403 C38.7799701,30.1475821 30.0905373,38.8370149 19.4103582,38.8370149 L19.4103582,38.8370149 Z M19.4103582,2.25210448 C9.91764179,2.25210448 2.1950597,9.97468657 2.1950597,19.467403 C2.1950597,28.9601194 9.91764179,36.6827015 19.4103582,36.6827015 C28.9030746,36.6827015 36.6262388,28.9601194 36.6262388,19.467403 C36.6262388,9.97468657 28.9030746,2.25210448 19.4103582,2.25210448 L19.4103582,2.25210448 Z" id="Fill-1" sketch:type="MSShapeGroup"></path>
            <path d="M19.4080299,4.11828358 C10.9438657,4.11828358 4.05949254,11.0038209 4.05949254,19.4679851 C4.05949254,27.9309851 10.9438657,34.8165224 19.4080299,34.8165224 C27.8716119,34.8165224 34.7565672,27.9309851 34.7565672,19.4679851 C34.7565672,11.0038209 27.8716119,4.11828358 19.4080299,4.11828358 L19.4080299,4.11828358 Z M19.4080299,32.6715224 C12.1278358,32.6715224 6.20449254,26.7487612 6.20449254,19.4679851 C6.20449254,12.1866269 12.1278358,6.26328358 19.4080299,6.26328358 C26.6882239,6.26328358 32.6115672,12.1866269 32.6115672,19.4679851 C32.6115672,26.7487612 26.6882239,32.6715224 19.4080299,32.6715224 L19.4080299,32.6715224 Z" id="Fill-2" sketch:type="MSShapeGroup"></path>
            <path d="M19.2729851,27.6859254 C18.8131343,27.6527463 18.4307015,27.3267761 18.323597,26.8756567 L16.0854627,17.4760746 L14.1040299,23.816194 C13.9870299,24.1910597 13.6744478,24.4687164 13.2896866,24.5414776 C13.2215821,24.5537015 13.1575522,24.5589403 13.0946866,24.5589403 C12.7704627,24.5589403 12.4689403,24.4145821 12.2669552,24.1625373 L10.5014776,21.9558358 L10.0864478,22.3714478 C9.88679104,22.5711045 9.62019403,22.6817015 9.33729851,22.6817015 L5.80634328,22.6817015 C5.22308955,22.6817015 4.74810448,22.2067164 4.74810448,21.6228806 C4.74810448,21.0390448 5.22308955,20.5640597 5.80634328,20.5640597 L8.89898507,20.5640597 L9.84080597,19.6222388 C10.0381343,19.4254925 10.3128806,19.3125672 10.5957761,19.3125672 C10.939209,19.3288657 11.2244328,19.4703134 11.4159403,19.7095522 L12.6767463,21.2852687 L15.2129104,13.169194 C15.3491194,12.7320448 15.7676418,12.4270299 16.2309851,12.4270299 C16.7356567,12.4433284 17.1419552,12.7704627 17.2537164,13.240791 L19.6100149,23.1380597 L20.8743134,19.9773134 C21.0291493,19.590806 21.3976119,19.3300299 21.813806,19.3131493 L21.8143881,19.3131493 C22.2509552,19.3131493 22.6240746,19.5366716 22.8039403,19.8975672 L23.0350299,20.3597463 L25.8919254,13.6942388 C26.0572388,13.3071493 26.4367612,13.0551045 26.858194,13.052194 C27.2813731,13.052194 27.6626418,13.299 27.8326119,13.6814328 L30.0567761,18.6862388 L32.9183284,18.6862388 C33.5027463,18.6862388 33.9777313,19.1612239 33.9777313,19.7450597 C33.9777313,20.3288955 33.5027463,20.8038806 32.9183284,20.8038806 L29.3687463,20.8038806 C28.950806,20.8038806 28.5712836,20.5570746 28.4018955,20.1746418 L26.8826418,16.757194 L24.082209,23.2923134 C23.919806,23.6700896 23.5501791,23.9215522 23.139806,23.933194 L23.1392239,23.933194 C22.7137164,23.933194 22.3429254,23.7090896 22.1624776,23.3487761 L21.9645672,22.9535373 L20.3364627,27.0240896 C20.1740597,27.4286418 19.7887164,27.6894179 19.3533134,27.6894179 L19.2729851,27.6859254" id="Fill-3" sketch:type="MSShapeGroup"></path>
        </g>
    </g>
</svg>

<svg width="39" height="39" viewBox="0 0 39 39" xmlns="http://www.w3.org/2000/svg"><g id="i-3" fill="#63B1FF" fill-rule="evenodd"><path d="M19.41 38.837c-10.68 0-19.37-8.69-19.37-19.37C.04 8.787 8.73.097 19.41.097c10.68 0 19.37 8.69 19.37 19.37 0 10.68-8.69 19.37-19.37 19.37zm0-36.585c-9.492 0-17.215 7.723-17.215 17.215 0 9.493 7.723 17.216 17.215 17.216 9.493 0 17.216-7.723 17.216-17.216 0-9.492-7.723-17.215-17.216-17.215z" id="Fill-1"/><path d="M19.408 4.118c-8.464 0-15.35 6.886-15.35 15.35 0 8.463 6.886 15.35 15.35 15.35 8.464 0 15.35-6.887 15.35-15.35 0-8.464-6.886-15.35-15.35-15.35zm0 28.554c-7.28 0-13.204-5.923-13.204-13.204 0-7.28 5.924-13.205 13.204-13.205s13.204 5.924 13.204 13.205c0 7.28-5.924 13.204-13.204 13.204z" id="Fill-2"/><path d="M19.273 27.686c-.46-.033-.842-.36-.95-.81l-2.238-9.4-1.98 6.34c-.118.375-.43.653-.815.725-.068.015-.132.02-.195.02-.325 0-.626-.144-.828-.396L10.5 21.956l-.414.415c-.2.2-.466.313-.75.313h-3.53c-.583 0-1.058-.475-1.058-1.06 0-.583.475-1.058 1.058-1.058H8.9l.94-.942c.198-.197.473-.31.756-.31.343.017.628.158.82.398l1.26 1.576 2.537-8.116c.136-.438.555-.743 1.018-.743.507.016.913.343 1.025.814l2.356 9.9 1.265-3.16c.155-.388.524-.65.94-.666.437 0 .81.224.99.585l.23.46 2.858-6.665c.165-.387.545-.64.966-.642.422 0 .804.247.974.63l2.224 5.004h2.86c.586 0 1.06.475 1.06 1.06 0 .583-.474 1.058-1.06 1.058H29.37c-.42 0-.8-.247-.968-.63l-1.52-3.417-2.8 6.535c-.162.378-.532.63-.942.64-.426 0-.797-.223-.978-.583l-.197-.396-1.63 4.07c-.16.405-.546.665-.982.665l-.08-.005" id="Fill-3"/></g></svg>
